dist/svg/list-ol.svg

<svg width="16" height="16" viewBox="0 0 16 16" fill="rgb(34, 34, 34)" xmlns="http://www.w3.org/2000/svg"><title>list-OL</title><path d="M14 4.00005H5V2.00005H14V4.00005ZM14 7.00005H5V9.00005H14V7.00005ZM14 12.0001H5V14.0001H14V12.0001ZM1.833 1.69905V2.00005L2.489 1.90405L2.549 1.96105V4.29005L2.494 4.37505L1.964 4.40405V4.69505H3.905V4.41005L3.401 4.38505L3.35 4.31005V1.30505H2.878L1.833 1.69905ZM3.513 8.18805C3.744 7.95705 3.89 7.64105 3.904 7.29205V7.29005C3.905 7.27805 3.905 7.26405 3.905 7.25005C3.905 6.97505 3.784 6.72805 3.592 6.56105L3.591 6.56005C3.377 6.39105 3.104 6.28805 2.807 6.28805C2.782 6.28805 2.757 6.28905 2.733 6.29005H2.736C2.716 6.28905 2.693 6.28805 2.67 6.28805C2.382 6.28805 2.114 6.37505 1.892 6.52505L1.897 6.52205C1.702 6.65205 1.576 6.87005 1.576 7.11805C1.576 7.12005 1.576 7.12205 1.576 7.12405C1.576 7.13005 1.576 7.13605 1.576 7.14305C1.576 7.25305 1.619 7.35305 1.69 7.42605C1.764 7.49705 1.865 7.54105 1.976 7.54105C1.983 7.54105 1.989 7.54105 1.996 7.54105H1.995C2.058 7.54005 2.118 7.53105 2.175 7.51305L2.17 7.51405C2.249 7.49205 2.318 7.46505 2.382 7.43205L2.375 7.43505V6.68105C2.385 6.67905 2.398 6.67805 2.41 6.67705C2.423 6.67605 2.442 6.67505 2.466 6.67505C2.476 6.67405 2.488 6.67405 2.5 6.67405C2.659 6.67405 2.802 6.73905 2.905 6.84505C3.003 6.96305 3.062 7.11505 3.062 7.28205C3.062 7.29705 3.061 7.31305 3.06 7.32805V7.32605C3.044 7.65205 2.92 7.94605 2.724 8.17605L2.726 8.17405C2.392 8.57005 2.022 8.91805 1.614 9.21805L1.596 9.23005V9.71105H3.999V8.63705H3.637L3.555 9.08605H2.296C2.765 8.84405 3.167 8.54405 3.512 8.19005L3.513 8.18905V8.18805ZM3.636 12.6201C3.772 12.4941 3.857 12.3141 3.857 12.1151C3.857 12.1101 3.857 12.1061 3.857 12.1011V12.1021C3.857 12.0961 3.857 12.0901 3.857 12.0831C3.857 11.8411 3.74 11.6271 3.559 11.4941L3.557 11.4931C3.352 11.3481 3.097 11.2611 2.822 11.2611C2.798 11.2611 2.774 11.2621 2.75 11.2631H2.753C2.732 11.2621 2.707 11.2611 2.681 11.2611C2.397 11.2611 2.131 11.3391 1.904 11.4741L1.911 11.4701C1.721 11.5751 1.593 11.7741 1.59 12.0021C1.59 12.0071 1.59 12.0131 1.59 12.0201C1.59 12.1291 1.634 12.2281 1.706 12.3001C1.781 12.3701 1.883 12.4131 1.994 12.4131C2.002 12.4131 2.01 12.4131 2.018 12.4121C2.075 12.4121 2.13 12.4051 2.183 12.3901L2.178 12.3911C2.238 12.3751 2.29 12.3531 2.339 12.3251L2.336 12.3271V11.6281C2.337 11.6281 2.339 11.6281 2.34 11.6281C2.353 11.6281 2.367 11.6271 2.38 11.6261H2.378C2.389 11.6251 2.403 11.6241 2.416 11.6241C2.417 11.6241 2.418 11.6241 2.419 11.6241C2.429 11.6231 2.442 11.6231 2.454 11.6231C2.612 11.6231 2.756 11.6841 2.864 11.7841C2.964 11.8901 3.026 12.0331 3.026 12.1901C3.026 12.2011 3.026 12.2131 3.025 12.2241V12.2221C3.025 12.2291 3.026 12.2381 3.026 12.2461C3.026 12.4011 2.957 12.5391 2.848 12.6321L2.847 12.6331C2.725 12.7281 2.569 12.7851 2.401 12.7851C2.386 12.7851 2.37 12.7851 2.355 12.7841H2.357C2.33 12.7841 2.302 12.7831 2.271 12.7801C2.24 12.7771 2.21 12.7741 2.178 12.7691V13.2041C2.219 13.1931 2.269 13.1821 2.321 13.1751L2.327 13.1741C2.372 13.1681 2.425 13.1641 2.478 13.1641C2.48 13.1641 2.482 13.1641 2.484 13.1641C2.495 13.1631 2.509 13.1631 2.522 13.1631C2.691 13.1631 2.845 13.2241 2.965 13.3251L2.964 13.3241C3.073 13.4271 3.14 13.5721 3.14 13.7331C3.14 13.7431 3.14 13.7541 3.139 13.7641V13.7631C3.139 13.7721 3.14 13.7831 3.14 13.7931C3.14 13.9521 3.082 14.0971 2.986 14.2091L2.987 14.2081C2.894 14.3131 2.759 14.3781 2.608 14.3781C2.602 14.3781 2.595 14.3781 2.589 14.3781C2.549 14.3771 2.512 14.3741 2.474 14.3681L2.479 14.3691C2.436 14.3621 2.386 14.3521 2.328 14.3401L2.173 13.6831C2.135 13.6691 2.09 13.6561 2.044 13.6481L2.039 13.6471C2.001 13.6391 1.958 13.6341 1.913 13.6341H1.912C1.907 13.6341 1.901 13.6341 1.895 13.6341C1.785 13.6341 1.685 13.6791 1.613 13.7521C1.543 13.8281 1.5 13.9291 1.5 14.0411C1.5 14.0481 1.5 14.0541 1.5 14.0611C1.502 14.2771 1.625 14.4621 1.805 14.5551L1.808 14.5561C2.026 14.6741 2.286 14.7431 2.562 14.7431C2.59 14.7431 2.617 14.7421 2.644 14.7411H2.64C2.659 14.7421 2.682 14.7421 2.705 14.7421C3.041 14.7421 3.352 14.6351 3.606 14.4541L3.601 14.4571C3.829 14.3001 3.977 14.0401 3.977 13.7461C3.977 13.7451 3.977 13.7451 3.977 13.7441C3.978 13.7341 3.978 13.7221 3.978 13.7101C3.978 13.4881 3.88 13.2881 3.726 13.1521L3.725 13.1511C3.528 12.9981 3.277 12.9051 3.004 12.9041C3.248 12.8711 3.464 12.7701 3.637 12.6201L3.635 12.6211L3.636 12.6201Z" fill="rgb(34, 34, 34)" fill-opacity="1.00"/></svg>

<!-- Generated by Trend Micro Style Portal -->
<svg version="1.1" xmlns="http://www.w3.org/2000/svg" width="16" height="16" viewBox="0 0 16 16">
  <title>list-ol</title>
  <path fill="rgb(34,34,34)" d="M14 4h-9v-2h9zM14 7h-9v2h9zM14 12h-9v2h9zM1.833 1.699v0.301l0.656-0.096 0.060 0.057v2.329l-0.055 0.085-0.53 0.029v0.291h1.941v-0.285l-0.504-0.025-0.051-0.075v-3.005h-0.472zM3.513 8.188c0.231-0.231 0.377-0.547 0.391-0.896l0-0.002c0.001-0.012 0.001-0.026 0.001-0.040 0-0.275-0.121-0.522-0.313-0.689l-0.001-0.001c-0.214-0.169-0.487-0.272-0.784-0.272-0.025 0-0.050 0.001-0.074 0.002l0.003-0c-0.020-0.001-0.043-0.002-0.066-0.002-0.288 0-0.556 0.087-0.778 0.237l0.005-0.003c-0.195 0.13-0.321 0.348-0.321 0.596 0 0.002 0 0.004 0 0.006v-0c-0 0.006-0 0.012-0 0.019 0 0.11 0.043 0.21 0.114 0.283l-0-0c0.074 0.071 0.175 0.115 0.286 0.115 0.007 0 0.013-0 0.020-0l-0.001 0c0.063-0.001 0.123-0.010 0.18-0.028l-0.005 0.001c0.079-0.022 0.148-0.049 0.212-0.082l-0.007 0.003v-0.754c0.010-0.002 0.023-0.003 0.035-0.004l0.001-0c0.013-0.001 0.031-0.002 0.055-0.002 0.010-0.001 0.022-0.001 0.034-0.001 0.159 0 0.302 0.065 0.405 0.171l0 0c0.098 0.118 0.157 0.27 0.157 0.437 0 0.015-0.001 0.031-0.002 0.046l0-0.002c-0.016 0.326-0.14 0.62-0.336 0.85l0.002-0.002c-0.334 0.396-0.704 0.744-1.112 1.044l-0.018 0.012v0.481h2.403v-1.074h-0.362l-0.082 0.449h-1.259c0.469-0.242 0.871-0.542 1.216-0.896l0.001-0.001zM3.636 12.62c0.136-0.126 0.221-0.306 0.221-0.505 0-0.005-0-0.009-0-0.014l0 0.001c0-0.006 0-0.012 0-0.019 0-0.242-0.117-0.456-0.298-0.589l-0.002-0.001c-0.205-0.145-0.46-0.232-0.735-0.232-0.024 0-0.048 0.001-0.072 0.002l0.003-0c-0.021-0.001-0.046-0.002-0.072-0.002-0.284 0-0.55 0.078-0.777 0.213l0.007-0.004c-0.19 0.105-0.318 0.304-0.321 0.532v0c-0 0.005-0 0.011-0 0.018 0 0.109 0.044 0.208 0.116 0.28l-0-0c0.075 0.070 0.177 0.113 0.288 0.113 0.008 0 0.016-0 0.024-0.001l-0.001 0c0 0 0 0 0 0 0.057 0 0.113-0.007 0.166-0.022l-0.005 0.001c0.060-0.016 0.112-0.038 0.161-0.066l-0.003 0.002v-0.699c0.001 0 0.003 0 0.004 0 0.013 0 0.027-0.001 0.040-0.002l-0.002 0c0.011-0.001 0.025-0.002 0.038-0.002 0.001 0 0.002 0 0.003 0h-0c0.010-0.001 0.023-0.001 0.035-0.001 0.158 0 0.302 0.061 0.41 0.161l-0-0c0.1 0.106 0.162 0.249 0.162 0.406 0 0.011-0 0.023-0.001 0.034l0-0.002c0 0.007 0.001 0.016 0.001 0.024 0 0.155-0.069 0.293-0.178 0.386l-0.001 0.001c-0.122 0.095-0.278 0.152-0.446 0.152-0.015 0-0.031-0-0.046-0.001l0.002 0c-0.027 0-0.055-0.001-0.086-0.004s-0.061-0.006-0.093-0.011v0.435c0.041-0.011 0.091-0.022 0.143-0.029l0.006-0.001c0.045-0.006 0.098-0.010 0.151-0.010 0.002 0 0.004 0 0.006 0h-0c0.011-0.001 0.025-0.001 0.038-0.001 0.169 0 0.323 0.061 0.443 0.162l-0.001-0.001c0.109 0.103 0.176 0.248 0.176 0.409 0 0.010-0 0.021-0.001 0.031l0-0.001c0 0.009 0.001 0.020 0.001 0.030 0 0.159-0.058 0.304-0.154 0.416l0.001-0.001c-0.093 0.105-0.228 0.17-0.379 0.17-0.006 0-0.013-0-0.019-0l0.001 0c-0.040-0.001-0.078-0.004-0.116-0.010l0.005 0.001c-0.043-0.007-0.093-0.017-0.151-0.029l-0.155-0.657c-0.038-0.014-0.083-0.027-0.129-0.035l-0.005-0.001c-0.038-0.008-0.081-0.013-0.126-0.013-0 0-0.001 0-0.001 0h0c-0.005-0-0.011-0-0.017-0-0.11 0-0.21 0.045-0.282 0.118l-0 0c-0.070 0.076-0.113 0.177-0.113 0.289 0 0.007 0 0.013 0 0.020l-0-0.001c0.002 0.216 0.125 0.402 0.305 0.495l0.003 0.001c0.218 0.118 0.478 0.187 0.754 0.187 0.028 0 0.055-0.001 0.082-0.002l-0.004 0c0.019 0.001 0.042 0.001 0.065 0.001 0.336 0 0.647-0.107 0.901-0.288l-0.005 0.003c0.228-0.157 0.376-0.417 0.376-0.711 0-0.001 0-0.001 0-0.002v0c0.001-0.010 0.001-0.022 0.001-0.034 0-0.222-0.098-0.422-0.252-0.558l-0.001-0.001c-0.197-0.153-0.448-0.246-0.721-0.247h-0c0.244-0.033 0.46-0.134 0.633-0.284l-0.002 0.001z"></path>
</svg>
